src/Assets/icons/gamepad.svg

<svg class="svg-icon" viewBox="0 0 24 24" fill="none" xmlns="http://www.w3.org/2000/svg">
<path d="M17 6C18.8856 6 19.8284 6 20.4142 6.58579C21 7.17157 21 8.11438 21 10L21 14C21 15.8856 21 16.8284 20.4142 17.4142C19.8284 18 18.8856 18 17 18L16 18L8 18L7 18C5.11438 18 4.17157 18 3.58579 17.4142C3 16.8284 3 15.8856 3 14L3 10C3 8.11438 3 7.17157 3.58579 6.58579C4.17157 6 5.11438 6 7 6L8 6L16 6L17 6Z" stroke="currentColor" stroke-width="2" stroke-linejoin="round"/>
<path d="M15 10L15 10.01" stroke="currentColor" stroke-width="2" stroke-linecap="round" stroke-linejoin="round"/>
<path d="M17 14L17 14.01" stroke="currentColor" stroke-width="2" stroke-linecap="round" stroke-linejoin="round"/>
<path d="M8.5 9.5L8.5 14.5" stroke="currentColor" stroke-width="2" stroke-linecap="round" stroke-linejoin="round"/>
<path d="M11 12L6 12" stroke="currentColor" stroke-width="2" stroke-linecap="round" stroke-linejoin="round"/>
</svg>

<svg class="svg-icon" viewBox="0 0 24 24" fill="none" xmlns="http://www.w3.org/2000/svg"><path d="M17 6c1.886 0 2.828 0 3.414.586C21 7.172 21 8.114 21 10v4c0 1.886 0 2.828-.586 3.414C19.828 18 18.886 18 17 18H7c-1.886 0-2.828 0-3.414-.586C3 16.828 3 15.886 3 14v-4c0-1.886 0-2.828.586-3.414C4.172 6 5.114 6 7 6h10Z" stroke="currentColor" stroke-width="2" stroke-linejoin="round"/><path d="M15 10v.01M17 14v.01M8.5 9.5v5M11 12H6" stroke="currentColor" stroke-width="2" stroke-linecap="round" stroke-linejoin="round"/></svg>
